X:0356
T:Happy Clown.
M:6/8
L:1/8
Q:3/8=120
I: :: ::
N:Bar 7 is |fed edc| in the book (c natural)
Z:Jack Campin * www.campin.me.uk * 2009
K:G
D   |G2A BAG|d2d d2g|Tf2e dcB |c2B AFD|
     G2A BAG|d2d d2g| fed ed^c|d3  d2::
B/c/|dBc ded|dcB c3 | cAB cdc |cBA B2
d   |g2d g2d|g3  gfe| dcB AGF |G3  G2:|

